X:2
T:The Curlews
R:reel
C:Josephine Keegan
O:20th century Irish
S:Silver Apple News, 2004
D:i.Altan, ii.Josephine Keegan
B:The Keegan tunes - Vol.1
Z:Paul Stewart Cranford (P.S.C.), <http://www.cranfordpub.com>
Q:333
L:1/8
M:C|
K:Bmin
z|fB ~B2 FB ~B2|fece a^gae|(f/g/a) ed cA A/A/A|EAce a^gba|
fB ~B2 FB ~B2|fece {b}a^gaf|~=g3 e ~f2 fe|dBcA FBB:|
|:z|Bdcd BF ~F2|DF ~F2 Bcdf|ecBc AE ~E2|CEAB (3(cBA) ec|
Bdcd BF ~F2|DFBc dBfd|cBAc fcec|dBcA FBB:|
